src/lib/assets/secret_dark.svg

<svg width="355" height="388" viewBox="0 0 355 388" fill="none" xmlns="http://www.w3.org/2000/svg">
<path d="M42.5483 335.772L46.2163 328.399C40.8366 324.835 33.3784 322.5 25.6757 322.5C13.9382 322.5 3.30116 327.784 3.30116 340.073C3.1789 362.93 39.2471 354.942 38.8803 370.671C38.7581 377.184 32.6448 380.133 25.0644 380.133C17.4839 380.133 9.16989 377.061 3.66796 371.9L0 378.905C6.11326 384.803 15.5277 387.998 24.6976 387.998C37.0464 387.998 48.2948 382.345 48.2948 369.688C48.2948 346.463 12.3488 353.959 12.3488 339.336C12.3488 333.191 17.8507 330.611 25.0644 330.611C31.0554 330.611 37.5354 332.577 42.5483 335.772Z" fill="#151A20"/>
<path d="M89.3912 322.623C70.6846 322.746 57.4799 336.018 57.4799 355.311C57.4799 374.604 70.5623 387.998 89.5134 387.998C100.273 387.998 109.32 384.066 115.434 377.307L110.176 371.777C105.163 377.061 98.1943 380.011 90.247 380.011C77.6537 380.011 68.4838 371.654 66.8944 358.874H119.468C120.447 337.001 110.176 322.623 89.3912 322.623ZM66.8944 351.255C68.2393 338.721 77.0424 330.611 89.3912 330.611C101.984 330.611 110.299 338.721 110.91 351.255H66.8944Z" fill="#151A20"/>
<path d="M180.832 338.844L186.09 332.208C180.221 326.187 171.662 322.623 161.27 322.623C142.685 322.623 129.359 336.141 129.359 355.311C129.359 374.604 142.563 387.998 161.27 387.998C172.396 387.998 181.321 383.82 187.068 376.816L181.566 371.163C177.042 376.57 170.073 379.519 161.637 379.519C148.31 379.519 138.773 369.688 138.773 355.311C138.773 341.056 148.31 331.225 161.637 331.225C169.462 331.225 175.942 334.052 180.832 338.844Z" fill="#151A20"/>
<path d="M213.911 337.369V322.992H204.374V387.629H213.911V353.222C215.011 340.196 223.447 331.717 237.019 331.963V322.623C226.137 322.746 218.19 327.907 213.911 337.369Z" fill="#151A20"/>
<path d="M275.296 322.623C256.59 322.746 243.385 336.018 243.385 355.311C243.385 374.604 256.468 387.998 275.419 387.998C286.178 387.998 295.226 384.066 301.339 377.307L296.082 371.777C291.069 377.061 284.1 380.011 276.152 380.011C263.559 380.011 254.389 371.654 252.8 358.874H305.374C306.352 337.001 296.082 322.623 275.296 322.623ZM252.8 351.255C254.145 338.721 262.948 330.611 275.296 330.611C287.89 330.611 296.204 338.721 296.815 351.255H252.8Z" fill="#151A20"/>
<path d="M352.31 375.832C348.764 377.921 345.341 379.027 342.04 379.15C336.538 379.15 333.481 375.955 333.481 368.091V332.454H353.9V324.958H333.481V308H324.067V324.958H314.775V332.454H324.067V369.688C324.067 382.468 331.036 388.121 340.45 387.998C345.586 387.998 350.476 386.278 355 383.206L352.31 375.832Z" fill="#151A20"/>
<path d="M277.422 41.4731C250.698 14.7208 215.198 0 177.433 0C99.4411 0 36 63.4977 36 141.546C36 219.595 99.4411 283.093 177.433 283.093C215.198 283.093 250.726 268.372 277.422 241.62C304.146 214.867 318.838 179.339 318.838 141.546C318.838 103.754 304.146 68.1971 277.422 41.4731ZM177.433 273.298C104.848 273.298 45.795 214.188 45.795 141.546C45.795 68.9048 104.848 9.79501 177.433 9.79501C250.018 9.79501 309.071 68.9048 309.071 141.546C309.071 214.188 250.018 273.298 177.433 273.298Z" fill="#151A20"/>
<path d="M223.862 144.887C214.803 136.791 202.941 131.384 191.447 126.147L191.363 126.118C171.093 116.861 153.57 108.85 154.815 89.9106C155.353 82.6918 160.59 78.3321 164.893 75.9825C169.734 73.3214 176.16 71.7361 182.105 71.7361C182.813 71.7361 183.521 71.7644 184.2 71.7927C201.497 72.9534 215.142 80.2855 228.476 95.5159L229.269 96.4501L230.203 95.6574L235.412 91.1279L236.346 90.307L235.525 89.3728C220.663 72.3306 204.526 63.7529 184.795 62.4223C183.945 62.3374 183.04 62.3091 182.049 62.3091C181.454 62.3091 180.803 62.3091 180.124 62.3374H179.274C166.337 62.3374 152.154 66.5838 141.368 73.7177C128.488 82.2388 121.269 93.9589 121.071 106.726C120.561 137.782 145.954 148.228 168.347 157.485L168.404 157.513L168.63 157.598C188.447 165.808 205.545 172.885 205.177 191.852C205.008 204.365 187.116 211.273 174.83 211.273H174.32H173.103V211.301C154.787 210.763 138.424 202.865 124.468 187.889L123.618 186.983L122.713 187.804L117.645 192.503L116.739 193.353L117.589 194.259C133.442 211.329 153.003 220.501 174.179 220.756H175.141C188.815 220.756 203.677 217.076 214.888 210.876C228.929 203.204 237.11 192.022 237.96 179.396C238.922 165.525 234.308 154.229 223.862 144.887ZM158.127 117.88C166.196 124.788 177.123 129.742 187.682 134.526L187.88 134.611C199.063 139.763 209.65 144.632 217.322 151.398C225.815 158.872 229.41 167.535 228.646 178.66C227.938 189.673 219.757 197.033 212.311 201.478C213.755 198.533 214.548 195.334 214.633 191.937C214.803 180.5 210.415 171.356 201.186 163.939C193.118 157.457 182.417 153.069 172.056 148.794C150.512 139.933 130.158 131.554 130.526 106.811C130.639 97.2994 136.358 88.297 146.634 81.4745C146.974 81.248 147.313 81.0215 147.681 80.7951C146.464 83.4561 145.785 86.2304 145.615 89.1463C144.794 100.612 148.899 110.01 158.127 117.88Z" fill="#151A20"/>
</svg>

<svg xmlns="http://www.w3.org/2000/svg" width="355" height="388" fill="none"><path fill="#151A20" d="m42.548 335.772 3.668-7.373c-5.38-3.564-12.838-5.899-20.54-5.899-11.738 0-22.375 5.284-22.375 17.573-.122 22.857 35.946 14.869 35.58 30.598-.123 6.513-6.236 9.462-13.817 9.462-7.58 0-15.894-3.072-21.396-8.233L0 378.905c6.113 5.898 15.528 9.093 24.698 9.093 12.348 0 23.597-5.653 23.597-18.31 0-23.225-35.946-15.729-35.946-30.352 0-6.145 5.502-8.725 12.715-8.725 5.991 0 12.471 1.966 17.484 5.161Zm46.843-13.149c-18.706.123-31.911 13.395-31.911 32.688 0 19.293 13.082 32.687 32.033 32.687 10.76 0 19.807-3.932 25.921-10.691l-5.258-5.53c-5.013 5.284-11.982 8.234-19.929 8.234-12.593 0-21.763-8.357-23.353-21.137h52.574c.979-21.873-9.292-36.251-30.077-36.251Zm-22.497 28.632c1.345-12.534 10.148-20.644 22.497-20.644 12.593 0 20.908 8.11 21.519 20.644H66.894Zm113.938-12.411 5.258-6.636c-5.869-6.021-14.428-9.585-24.82-9.585-18.585 0-31.911 13.518-31.911 32.688 0 19.293 13.204 32.687 31.911 32.687 11.126 0 20.051-4.178 25.798-11.182l-5.502-5.653c-4.524 5.407-11.493 8.356-19.929 8.356-13.327 0-22.864-9.831-22.864-24.208 0-14.255 9.537-24.086 22.864-24.086 7.825 0 14.305 2.827 19.195 7.619Zm33.079-1.475v-14.377h-9.537v64.637h9.537v-34.407c1.1-13.026 9.536-21.505 23.108-21.259v-9.34c-10.882.123-18.829 5.284-23.108 14.746Zm61.385-14.746c-18.706.123-31.911 13.395-31.911 32.688 0 19.293 13.083 32.687 32.034 32.687 10.759 0 19.807-3.932 25.92-10.691l-5.257-5.53c-5.013 5.284-11.982 8.234-19.93 8.234-12.593 0-21.763-8.357-23.352-21.137h52.574c.978-21.873-9.292-36.251-30.078-36.251ZM252.8 351.255c1.345-12.534 10.148-20.644 22.496-20.644 12.594 0 20.908 8.11 21.519 20.644H252.8Zm99.51 24.577c-3.546 2.089-6.969 3.195-10.27 3.318-5.502 0-8.559-3.195-8.559-11.059v-35.637H353.9v-7.496h-20.419V308h-9.414v16.958h-9.292v7.496h9.292v37.234c0 12.78 6.969 18.433 16.383 18.31 5.136 0 10.026-1.72 14.55-4.792l-2.69-7.374ZM277.422 41.473C250.698 14.721 215.198 0 177.433 0 99.441 0 36 63.498 36 141.546c0 78.049 63.441 141.547 141.433 141.547 37.765 0 73.293-14.721 99.989-41.473 26.724-26.753 41.416-62.281 41.416-100.074 0-37.792-14.692-73.349-41.416-100.073Zm-99.989 231.825c-72.585 0-131.638-59.11-131.638-131.752 0-72.641 59.053-131.751 131.638-131.751 72.585 0 131.638 59.11 131.638 131.751 0 72.642-59.053 131.752-131.638 131.752Z"/><path fill="#151A20" d="M223.862 144.887c-9.059-8.096-20.921-13.503-32.415-18.74l-.084-.029c-20.27-9.257-37.793-17.268-36.548-36.207.538-7.22 5.775-11.579 10.078-13.928 4.841-2.662 11.267-4.247 17.212-4.247.708 0 1.416.028 2.095.057 17.297 1.16 30.942 8.492 44.276 23.723l.793.934.934-.793 5.209-4.53.934-.82-.821-.934c-14.862-17.042-30.999-25.62-50.73-26.95a27.757 27.757 0 0 0-2.746-.114c-.595 0-1.246 0-1.925.028h-.85c-12.937 0-27.12 4.247-37.906 11.38-12.88 8.522-20.099 20.242-20.297 33.009-.51 31.056 24.883 41.502 47.276 50.759l.057.028.226.085c19.817 8.21 36.915 15.287 36.547 34.254-.169 12.513-18.061 19.421-30.347 19.421h-1.727v.028c-18.316-.538-34.679-8.436-48.635-23.412l-.85-.906-.905.821-5.068 4.699-.906.85.85.906c15.853 17.07 35.414 26.242 56.59 26.497h.962c13.674 0 28.536-3.68 39.747-9.88 14.041-7.672 22.222-18.854 23.072-31.48.962-13.871-3.652-25.167-14.098-34.509Zm-65.735-27.007c8.069 6.908 18.996 11.862 29.555 16.646l.198.085c11.183 5.152 21.77 10.021 29.442 16.787 8.493 7.474 12.088 16.137 11.324 27.262-.708 11.013-8.889 18.373-16.335 22.818a22.784 22.784 0 0 0 2.322-9.541c.17-11.437-4.218-20.581-13.447-27.998-8.068-6.482-18.769-10.87-29.13-15.145-21.544-8.861-41.898-17.24-41.53-41.983.113-9.512 5.832-18.514 16.108-25.337.34-.226.679-.453 1.047-.679a23.096 23.096 0 0 0-2.066 8.351c-.821 11.466 3.284 20.864 12.512 28.734Z"/></svg>
